public/topics/7.svg

<svg width="250" height="250" viewBox="0 0 250 250" fill="none" xmlns="http://www.w3.org/2000/svg">
<rect width="250" height="250" rx="30" fill="#FF0033"/>
<path d="M169.6 78.2C167.867 86.3333 165.667 94.4 163 102.4C160.467 110.4 157.2 119.6 153.2 130C146.4 148.267 141.6 163 138.8 174.2C136.533 181.8 134.4 187.267 132.4 190.6C130.4 193.933 128.067 195.6 125.4 195.6C123.267 195.6 120.4 194.333 116.8 191.8C115.867 190.6 115.4 188.933 115.4 186.8C115.4 185.067 115.867 182.533 116.8 179.2C117.733 175.733 118.867 171.933 120.2 167.8L122.6 160.6C124.333 154.867 127.267 147.133 131.4 137.4C134.467 129.933 137.2 122.733 139.6 115.8C142.133 108.867 144.6 100.6 147 91C140.067 93.1333 133.2 94.2 126.4 94.2C123.067 94.2 118 93.7333 111.2 92.8C105.6 92 101.6 91.6 99.2 91.6C99.3333 93.6 100.333 97.4 102.2 103C104.467 108.733 105.6 113.067 105.6 116C105.6 117.733 105 119.2 103.8 120.4C102.6 121.6 100.667 122.2 98 122.2C94.5333 122.2 91.8667 121.133 90 119C88.2667 116.733 86.8 114.2 85.6 111.4C84.5333 108.467 83.7333 106.467 83.2 105.4C81.3333 101.133 79.8667 96.7333 78.8 92.2C77.7333 87.5333 77.2 83.4 77.2 79.8C77.2 77.6667 77.7333 75.8 78.8 74.2C80 72.6 81.3333 71.8 82.8 71.8C84.8 72.0667 87.8 72.6 91.8 73.4C98.2 74.4667 103.533 75.3333 107.8 76C112.2 76.5333 116.867 76.8 121.8 76.8C133.933 76.8 143.267 74.6667 149.8 70.4C150.733 69.8667 152.133 69.6 154 69.6C157.467 69.6 160.933 70.4667 164.4 72.2C167.867 73.8 169.6 75.8 169.6 78.2Z" fill="white"/>
</svg>

<svg xmlns="http://www.w3.org/2000/svg" width="250" height="250" fill="none" viewBox="0 0 250 250"><rect width="250" height="250" fill="#f03" rx="30"/><path fill="#fff" d="M169.6 78.2a224 224 0 0 1-6.6 24.2q-3.8 12-9.8 27.6-10.2 27.4-14.4 44.2-3.4 11.4-6.4 16.4t-7 5q-3.2 0-8.6-3.8-1.4-1.8-1.4-5 0-2.6 1.4-7.6 1.4-5.2 3.4-11.4l2.4-7.2q2.6-8.6 8.8-23.2 4.6-11.2 8.2-21.6 3.8-10.4 7.4-24.8-10.4 3.2-20.6 3.2-5 0-15.2-1.4-8.4-1.2-12-1.2.2 3 3 11.4 3.4 8.6 3.4 13 0 2.6-1.8 4.4t-5.8 1.8q-5.2 0-8-3.2-2.6-3.4-4.4-7.6-1.6-4.4-2.4-6a76.7 76.7 0 0 1-4.4-13.2q-1.6-7-1.6-12.4 0-3.2 1.6-5.6 1.8-2.4 4-2.4 3 .4 9 1.6 9.6 1.6 16 2.6 6.6.8 14 .8 18.2 0 28-6.4 1.4-.8 4.2-.8 5.2 0 10.4 2.6 5.2 2.4 5.2 6"/></svg>
